X: 1
T:Nancy Dawson
M:6/8
L:1/8
K:D
FAF D3|FAF D3|FAF D2A|B3 d3:||FAF D2A|B3 d3|FAF D2A|B3 d3||:A2B c2d|e2d
c2B|A2A B2c|d3d3:||FGF EFE|D3d3|c3 B3|A6|FGF EFE|D3 d3|c3 B3|A3 ABc|d2A
F2D|E6|d2A F2D|E6|FGF EFE|D3 d3|F3 E3|D3 d3||
